X:706
T:Star of Kintra
M:2/2
L:1/4
C:Elvyn Blomfield, 2004
S:Colin Hume's website,  colinhume.com  - chords can also be printed below the stave.
Q:1/2=115
K:G
P:A
[| D | "G"G2 B2 | "G"d3/ B/AG | "C"E3/ F/ GA | "D7"D3 D |\
"G"G2 B2 | "G"d3/ B/AG | "D"FA2e | "D7"dcBA |
"G"GB2G | "D7"Ac2A | "G"B3/c/dG | "C"eg2e |\
"G"dG2A | "G"Bd2G | "D7"A/B/cBA | "G"G3 ||
P:B
|: G | "C"eg2G | "G"Bd2D | "D7"F3/G/Ac | "G"ed2G |\
"C"eg2G | "G"Bd2D |1 "D7"c3/B/Ae | "D7"d3 :|2 "D7"F/G/ABA | "G"G3 |]

